icons/arrow-square-downright.svg

<svg width="24" height="24" viewBox="0 0 24 24" fill="none" xmlns="http://www.w3.org/2000/svg">
<path fill-rule="evenodd" clip-rule="evenodd" d="M3.75 15C3.75 17.8858 6.11421 20.25 9 20.25L15 20.25C17.8858 20.25 20.25 17.8858 20.25 15L20.25 9C20.25 6.21421 17.7858 3.75 15 3.75L9 3.75C6.11421 3.75 3.75 6.11421 3.75 9L3.75 15ZM9 21.75C5.28579 21.75 2.25 18.7142 2.25 15L2.25 9C2.25 5.28579 5.28579 2.25 9 2.25L15 2.25C18.6142 2.25 21.75 5.38579 21.75 9L21.75 15C21.75 18.7142 18.7142 21.75 15 21.75L9 21.75Z" fill="black"/>
<path fill-rule="evenodd" clip-rule="evenodd" d="M8.86249 9.29962C9.15539 9.00672 9.63026 9.00672 9.92315 9.29962L14.5901 13.9665C14.883 14.2594 14.883 14.7343 14.5901 15.0272C14.2972 15.3201 13.8223 15.3201 13.5294 15.0272L8.86249 10.3603C8.5696 10.0674 8.5696 9.59251 8.86249 9.29962Z" fill="black"/>
<path fill-rule="evenodd" clip-rule="evenodd" d="M14.3426 9.7871C14.7568 9.7871 15.0926 10.1229 15.0926 10.5371L15.0926 14.0726C15.0926 14.7697 14.5447 15.3176 13.8476 15.3176L10.3121 15.3176C9.89787 15.3176 9.56208 14.9818 9.56208 14.5676C9.56208 14.1534 9.89787 13.8176 10.3121 13.8176L13.5926 13.8176L13.5926 10.5371C13.5926 10.1229 13.9284 9.7871 14.3426 9.7871Z" fill="black"/>
</svg>

<svg xmlns="http://www.w3.org/2000/svg" fill="none" viewBox="0 0 24 24">
  <path fill="#000" fill-rule="evenodd" d="M3.75 15c0 2.886 2.364 5.25 5.25 5.25h6c2.886 0 5.25-2.364 5.25-5.25V9c0-2.786-2.464-5.25-5.25-5.25H9C6.114 3.75 3.75 6.114 3.75 9v6ZM9 21.75c-3.714 0-6.75-3.036-6.75-6.75V9c0-3.714 3.036-6.75 6.75-6.75h6c3.614 0 6.75 3.136 6.75 6.75v6c0 3.714-3.036 6.75-6.75 6.75H9Z" clip-rule="evenodd"/>
  <path fill="#000" fill-rule="evenodd" d="M8.862 9.3a.75.75 0 0 1 1.061 0l4.667 4.666a.75.75 0 0 1-1.06 1.061L8.861 10.36a.75.75 0 0 1 0-1.06Z" clip-rule="evenodd"/>
  <path fill="#000" fill-rule="evenodd" d="M14.343 9.787a.75.75 0 0 1 .75.75v3.536c0 .697-.548 1.245-1.245 1.245h-3.536a.75.75 0 1 1 0-1.5h3.28v-3.28a.75.75 0 0 1 .75-.75Z" clip-rule="evenodd"/>
</svg>
